X:1
T:Title
%%score { 1 | 2 }
L:1/8
M:6/8
K:A
V:1 treble nm="Grand Piano"
V:2 bass 
V:1
 z3 z2[Q:1/4=90] [CE] | [Ec][Ec][Ec] [Ec][EB][A,EA] | [A,DF] [DFA]2- [DFA]2 [A,DF] | %3
 [A,E]2 [A,EA] [B,EG]2 [CEA] |[M:5/8] B-B- B3 |[M:1/8] E |[M:3/4] [Ec][Ec] [Ec][Ec] [EB][EA] | %7
 [DF][FA]- [FA]3 F | E2 A B2 E |[M:5/8] [CA]-[CA]- [CA]3 |[M:1/8] [=Gc] | %11
[M:3/4] [Fd][Fd] [Fd][Fd] [DA][FB] | [Ec]2 [Ec] [Ec]2 A | A2 A [EG]2 [^DA] | %14
[M:5/8] [EB]-[EB]- [EB]3 |[M:1/8] [EB] |[M:3/4] [Ec][Ec] [Ec][=Ge] [Ge][Ge] | %17
[M:7/8] [Fd]2 [Fd] F3 F |[M:3/4] E2 A B2 E |[M:5/8] [CA]-[CA]- [CA]3 |] %20
V:2
 z3 z2 [A,,A,] | [A,,A,][A,,A,][A,,A,] [A,,A,][B,,G,]C, | D, D,2- D,2 D, | C,2 C, B,,2 A,, | %4
[M:5/8] [E,G,E]-[E,G,E]- [E,G,E]3 |[M:1/8] [E,G,] | %6
[M:3/4] [A,,A,][A,,A,] [A,,A,][A,,A,] [B,,G,][C,A,] | [D,A,][D,D]- [D,D]3 [D,A,D] | %8
 [E,A,C]2 [E,C] [E,G,D]2 [E,G,D] |[M:5/8] [A,,A,]-[A,,A,]- [A,,A,]3 |[M:1/8] [A,,A,] | %11
[M:3/4] [D,A,][D,A,] [D,A,][D,A,] [D,F,][D,A,] | [A,,A,]2 [A,,A,] [A,,A,]2 [F,A,C] | %13
 [F,A,C]2 [F,A,C] [B,,B,]2 [B,,F,] |[M:5/8] [E,G,]-[E,G,]- [E,G,]3 |[M:1/8] [E,G,] | %16
[M:3/4] [A,,A,][A,,A,] [A,,A,][C,A,] [C,A,][C,A,] |[M:7/8] [D,A,]2 [D,A,] [D,A,D]3 [D,A,D] | %18
[M:3/4] [E,A,C]2 [E,C] [E,G,D]2 [E,G,D] |[M:5/8] [A,,A,]-[A,,A,]- [A,,A,]3 |] %20

